polaris-icons/icons/new-icons/BillingStatementEuroMajor.svg

<svg width="20" height="20" viewBox="0 0 20 20" fill="none" xmlns="http://www.w3.org/2000/svg">
<path fill-rule="evenodd" clip-rule="evenodd" d="M4.9626 17.4005C4.38275 17.1779 4 16.6211 4 16V5C4 3.61929 5.11929 2.5 6.5 2.5H13.5C14.8807 2.5 16 3.61929 16 5V16C16 16.6211 15.6172 17.1779 15.0374 17.4005C14.4576 17.623 13.8005 17.4651 13.3851 17.0035L12.25 15.7423L11.1149 17.0035C10.8305 17.3196 10.4252 17.5001 10 17.5001C9.57477 17.5001 9.16952 17.3196 8.88506 17.0035L7.74999 15.7423L6.61493 17.0035C6.19945 17.4651 5.54245 17.623 4.9626 17.4005ZM7.74999 14.9949L7.75085 14.9941ZM12.3512 14H12.1488C11.9112 14.024 11.6807 14.1326 11.5067 14.3259L10 16.0001L8.49329 14.3259C8.31931 14.1326 8.08878 14.024 7.85123 14H7.64876C7.41121 14.024 7.18068 14.1326 7.00671 14.3259L5.5 16V5C5.5 4.44772 5.94772 4 6.5 4H13.5C14.0523 4 14.5 4.44772 14.5 5V16L12.9933 14.3259C12.8193 14.1326 12.5888 14.024 12.3512 14Z" fill="#4A4A4A"/>
<path fill-rule="evenodd" clip-rule="evenodd" d="M9.5534 8.75C9.68115 7.92683 10.0122 7.54234 10.2609 7.39316C10.5699 7.20774 10.9454 7.2561 11.2197 7.53038C11.5126 7.82328 11.9874 7.82328 12.2803 7.53039C12.5732 7.2375 12.5732 6.76262 12.2803 6.46973C11.5546 5.744 10.4301 5.54234 9.48913 6.10692C8.70239 6.57897 8.18575 7.49201 8.04132 8.75H7.75C7.33579 8.75 7 9.08579 7 9.5C7 9.91422 7.33579 10.25 7.75 10.25H8.0413C8.1857 11.5081 8.70235 12.4212 9.48914 12.8932C10.4301 13.4578 11.5546 13.2561 12.2803 12.5304C12.5732 12.2375 12.5732 11.7627 12.2803 11.4698C11.9875 11.1769 11.5126 11.1768 11.2197 11.4697C10.9454 11.744 10.5699 11.7924 10.2609 11.607C10.0122 11.4578 9.6811 11.0733 9.55338 10.25H11.25C11.6642 10.25 12 9.91422 12 9.5C12 9.08579 11.6642 8.75 11.25 8.75H9.5534Z" fill="#4A4A4A"/>
</svg>

<svg viewBox="0 0 20 20" xmlns="http://www.w3.org/2000/svg"><path fill-rule="evenodd" d="M4.963 17.4a1.5 1.5 0 0 1-.963-1.4v-11a2.5 2.5 0 0 1 2.5-2.5h7a2.5 2.5 0 0 1 2.5 2.5v11a1.5 1.5 0 0 1-2.615 1.003l-1.135-1.26-1.135 1.26a1.5 1.5 0 0 1-2.23 0l-1.135-1.26-1.135 1.26a1.5 1.5 0 0 1-1.652.398Zm2.787-2.405Zm4.601-.995h-.202a.995.995 0 0 0-.642.326l-1.507 1.674-1.507-1.674a.995.995 0 0 0-.642-.326h-.202a.995.995 0 0 0-.642.326l-1.507 1.674v-11a1 1 0 0 1 1-1h7a1 1 0 0 1 1 1v11l-1.507-1.674a.995.995 0 0 0-.642-.326Z" fill="#5C5F62"/><path fill-rule="evenodd" d="M9.553 8.75c.128-.823.46-1.208.708-1.357.309-.185.684-.137.959.137a.75.75 0 1 0 1.06-1.06c-.725-.726-1.85-.928-2.79-.363-.788.472-1.304 1.385-1.449 2.643h-.291a.75.75 0 0 0 0 1.5h.291c.145 1.258.661 2.171 1.448 2.643.941.565 2.066.363 2.791-.363a.75.75 0 1 0-1.06-1.06c-.275.274-.65.322-.96.137-.248-.15-.579-.534-.707-1.357h1.697a.75.75 0 0 0 0-1.5h-1.697Z" fill="#5C5F62"/></svg>
